modules/coreui-icons-free/icons/highlighter.svg

<!-- Generated by IcoMoon.io -->
<svg version="1.1" xmlns="http://www.w3.org/2000/svg" width="24" height="24" viewBox="0 0 24 24">
<title>highlighter</title>
<path d="M23.049 5.458l-4.356-4.412c-0.27-0.276-0.647-0.446-1.063-0.446-0.002 0-0.003 0-0.005 0h-0.001c-0.001 0-0.002 0-0.003 0-0.417 0-0.794 0.171-1.064 0.447l-0 0-12.454 12.651c-0.266 0.271-0.429 0.642-0.429 1.052 0 0.414 0.167 0.789 0.438 1.061l0.689 0.689-4.050 4.098v1.808h5.006l2.475-2.475 0.585 0.585c0.271 0.271 0.646 0.439 1.061 0.439 0.432 0 0.821-0.183 1.095-0.475l0.001-0.001 12.105-12.944c0.251-0.267 0.406-0.628 0.406-1.025 0-0.411-0.166-0.783-0.434-1.054l0 0zM5.135 20.906h-2.581l2.182-2.208 1.303 1.303zM9.877 19.456l-1.646-1.646-1.131 1.131-1.309-1.309 1.124-1.138-1.743-1.743 2.266-2.302 4.646 4.646zM13.109 15.999l-4.619-4.619 9.136-9.28 4.356 4.412z"></path>
</svg>

<svg xmlns="http://www.w3.org/2000/svg" width="24" height="24" viewBox="0 0 24 24"><path d="M23.049 5.458l-4.356-4.412A1.482 1.482 0 0017.63.6H17.621c-.417 0-.794.171-1.064.447L4.103 13.698a1.496 1.496 0 00-.429 1.052c0 .414.167.789.438 1.061l.689.689-4.05 4.098v1.808h5.006l2.475-2.475.585.585a1.497 1.497 0 002.156-.036l.001-.001L23.079 7.535a1.493 1.493 0 00-.028-2.079zM5.135 20.906H2.554l2.182-2.208 1.303 1.303zm4.742-1.45L8.231 17.81 7.1 18.941l-1.309-1.309 1.124-1.138-1.743-1.743 2.266-2.302 4.646 4.646zm3.232-3.457L8.49 11.38l9.136-9.28 4.356 4.412z"/></svg>
